X:1
T: John Derek Evans
C:Muriel A Johnstone adapted by Bruce Shawyer
R:Strathspey
Q: 128
K:G
M:4/4
L:1/16
|:G2|B3G DB,3 C3D EG3|F3G A3c Bd3 dg3|B3G DB,3 C3D E3G|((3FED) ((3cBA) G4 G2A2|
B3G DB,3 C3D EG3|F3G A3c Bd3 dg3|e3c G3E ((3B,DG) ((3Bdg) eg3 B3A|G6D2|
E4 D3C B,G3 G2FG|A4 G3A Bd3 d3D|E4 D3C B,G3 G3A|((3A^ce) ((3gfe) fd3 d3D|
E4 D3C B,G3 G2FG|A4 G3A Bd3 dg3|e3c G3E ((3B,DG) ((3Bdg) eg3 B3A|G6:|
